svg/emoji_u1f4f3.svg

<svg xmlns="http://www.w3.org/2000/svg" xmlns:xlink="http://www.w3.org/1999/xlink" width="128" height="128"><defs><linearGradient xlink:href="#a" id="c" x1="64" y1="9.57" x2="64" y2="116.584" gradientUnits="userSpaceOnUse" gradientTransform="matrix(.99 0 0 .99 .64 .645)"/><linearGradient id="a"><stop offset="0" stop-color="#3c48ff"/><stop offset="1" stop-color="#8bb6bb"/></linearGradient><radialGradient xlink:href="#b" id="d" cx="42.143" cy="6.368" fx="42.143" fy="6.368" r="1.639" gradientUnits="userSpaceOnUse" gradientTransform="matrix(1.87395 0 0 1.73798 -36.693 -4.008)"/><linearGradient id="b"><stop offset="0" stop-color="#282846"/><stop offset="1" stop-color="#1a4223" stop-opacity=".177"/></linearGradient></defs><rect width="59.954" height="120.334" x="34.023" y="3.833" rx="6.2" ry="2.1" fill="#181818" paint-order="stroke fill markers"/><path fill="url(#c)" paint-order="stroke fill markers" d="M35.596 10.119h56.809v105.944H35.596z"/><path d="M54.22 119.75h19.56M54.22 7.06h19.56" fill="none" fill-rule="evenodd" stroke="#282828" stroke-width="1.48" stroke-linecap="round" stroke-linejoin="round"/><text style="line-height:24.74994087px" x="43.835" y="36.255" font-weight="400" font-size="39.6" font-family="Sans" letter-spacing="0" word-spacing="0" opacity=".8" fill="#fff"><tspan x="43.835" y="36.255" style="-inkscape-font-specification:'Comic Neue'" font-size="17.16" font-family="Comic Neue">04:20</tspan></text><path fill-opacity=".402" stroke-width="1.48" paint-order="stroke fill markers" d="M35.596 109.286h56.809v6.777H35.596z"/><g transform="matrix(.99 0 0 .99 .64 .645)" stroke-width="1.01" fill="none" fill-opacity=".402" stroke="#fff"><ellipse ry="1.278" rx="1.299" cy="113.161" cx="63.845" stroke-width=".384" paint-order="stroke fill markers"/><path transform="matrix(.59184 0 0 .6018 9.49 44.197)" d="M66.06 116.53l-3.348-1.934 3.349-1.933z" stroke-width=".643" stroke-linejoin="round" paint-order="stroke fill markers"/><path stroke-width=".384" stroke-linejoin="round" paint-order="stroke fill markers" d="M78.794 111.883h2.597v2.555h-2.597z"/></g><text style="line-height:24.74994087px" x="43.835" y="49.752" font-weight="400" font-size="39.6" font-family="Sans" letter-spacing="0" word-spacing="0" opacity=".8" fill="#fff"><tspan x="43.835" y="49.752" style="-inkscape-font-specification:'Comic Neue'" font-size="11.88" font-family="Comic Neue">17.07.</tspan></text><circle cx="42.281" cy="7.06" r="1.419" fill="url(#d)" paint-order="stroke fill markers"/><g fill="#fff" stroke-width="1.981"><path d="M64 59.854c-10.58 0-19.155 8.576-19.155 19.15 0 10.58 8.576 19.155 19.155 19.155 10.574 0 19.155-8.575 19.155-19.155-.005-10.58-8.58-19.15-19.155-19.15zm14.824 19.15c0 3.549-1.251 6.804-3.326 9.353l-20.856-20.85a14.782 14.782 0 0 1 9.353-3.327c8.192 0 14.83 6.632 14.83 14.824zm-29.653 0c0-2.953.873-5.693 2.357-8.005L72 91.47a14.75 14.75 0 0 1-8.005 2.358c-8.187.005-14.824-6.633-14.824-14.825z"/><g transform="matrix(.50475 0 0 .50475 18.931 46.7)"><defs><path d="M106.64 46.87c-3.05-2.79-7.01-4.5-11.1-5.04-.78-.1-2.2-.04-2.69.74-.51.82-.44 1.95-.3 2.85.96 6.4 1.25 12.57-.1 18.96-.22 1.08-.44 2.16-.78 3.21-.31.94-.78 2.36-1.67 2.92-.75.46-1.54-.21-2.07-.69-3.06-2.84-7.44-4.63-11.67-4.03-1.25.17-2.66.57-3.77 1.2-1.14.65-2.49 1.82-3.14 2.99-1.34 2.44-1.61 5.39-.6 8 .27.72.63 1.45 1.05 2.09 2.33 3.53 6.85 5.1 10.92 5.12 3.53.02 7.23-1.1 9.58-3.87 1.01-1.2 1.74-2.6 2.28-4.05.62-1.67 1.25-3.33 1.9-4.98.64-1.6 1.1-3.28 1.49-4.96a42.985 42.985 0 0 0 .94-6.34c.07-.81.09-1.63.16-2.44.15-1.67-.14-3.31 2.14-2.99.7.09 1.37.47 1.98.79 1.55.82 2.97 2.02 3.88 3.53 1.05 1.76.89 3.67.25 5.55-.11.32-.18.75-.12 1.09.15.88.73 1.33 1.61 1.19 2.03-.33 4.3-4.45 4.6-6.85.63-4.98-1.14-10.66-4.77-13.99z" id="e"/></defs><use height="100%" width="100%" xlink:href="#e" overflow="visible"/></g></g><g stroke-width="2.819" fill="none" fill-rule="evenodd" stroke="#000" stroke-linecap="round" stroke-linejoin="round"><path d="M25.326 31.44s-3.219 5.223-3.219 8.14c0 2.918 3.22 5.223 3.22 8.14 0 2.918-3.22 5.222-3.22 8.14s3.22 5.222 3.22 8.14-3.22 5.222-3.22 8.14 3.22 5.222 3.22 8.14c0 2.917-3.22 5.222-3.22 8.14 0 2.917 3.22 8.14 3.22 8.14M11.44 47.72c0 2.918-3.219 5.222-3.219 8.14s3.22 5.222 3.22 8.14-3.22 5.222-3.22 8.14 3.22 5.222 3.22 8.14" stroke-width="3.7800534799999994"/></g><g stroke-width="2.819" fill="none" fill-rule="evenodd" stroke="#000" stroke-linecap="round" stroke-linejoin="round"><path d="M102.674 31.44s3.219 5.223 3.219 8.14c0 2.918-3.22 5.223-3.22 8.14 0 2.918 3.22 5.222 3.22 8.14s-3.22 5.222-3.22 8.14 3.22 5.222 3.22 8.14-3.22 5.222-3.22 8.14c0 2.917 3.22 5.222 3.22 8.14 0 2.917-3.22 8.14-3.22 8.14M116.56 47.72c0 2.918 3.219 5.222 3.219 8.14s-3.22 5.222-3.22 8.14 3.22 5.222 3.22 8.14-3.22 5.222-3.22 8.14" stroke-width="3.7800534799999994"/></g></svg>

<?xml version="1.0" encoding="UTF-8" standalone="no"?>
<!DOCTYPE svg PUBLIC "-//W3C//DTD SVG 1.1//EN" "http://www.w3.org/Graphics/SVG/1.1/DTD/svg11.dtd">
<svg width="100%" height="100%" viewBox="0 0 128 128" version="1.1" xmlns="http://www.w3.org/2000/svg" xmlns:xlink="http://www.w3.org/1999/xlink" xml:space="preserve" xmlns:serif="http://www.serif.com/" style="fill-rule:evenodd;clip-rule:evenodd;stroke-linecap:round;stroke-linejoin:round;">
    <g>
        <path d="M25.326,31.44C25.326,31.44 22.107,36.663 22.107,39.58C22.107,42.498 25.327,44.803 25.327,47.72C25.327,50.638 22.107,52.942 22.107,55.86C22.107,58.778 25.327,61.082 25.327,64C25.327,66.918 22.107,69.222 22.107,72.14C22.107,75.058 25.327,77.362 25.327,80.28C25.327,83.197 22.107,85.502 22.107,88.42C22.107,91.337 25.327,96.56 25.327,96.56M11.44,47.72C11.44,50.638 8.221,52.942 8.221,55.86C8.221,58.778 11.441,61.082 11.441,64C11.441,66.918 8.221,69.222 8.221,72.14C8.221,75.058 11.441,77.362 11.441,80.28" style="fill:none;stroke:black;stroke-width:3.78px;"/>
    </g>
    <g>
        <path d="M102.674,31.44C102.674,31.44 105.893,36.663 105.893,39.58C105.893,42.498 102.673,44.803 102.673,47.72C102.673,50.638 105.893,52.942 105.893,55.86C105.893,58.778 102.673,61.082 102.673,64C102.673,66.918 105.893,69.222 105.893,72.14C105.893,75.058 102.673,77.362 102.673,80.28C102.673,83.197 105.893,85.502 105.893,88.42C105.893,91.337 102.673,96.56 102.673,96.56M116.56,47.72C116.56,50.638 119.779,52.942 119.779,55.86C119.779,58.778 116.559,61.082 116.559,64C116.559,66.918 119.779,69.222 119.779,72.14C119.779,75.058 116.559,77.362 116.559,80.28" style="fill:none;stroke:black;stroke-width:3.78px;"/>
    </g>
    <path d="M94.28,9.42C94.28,5.998 91.502,3.22 88.08,3.22L39.92,3.22C36.498,3.22 33.72,5.998 33.72,9.42L33.72,118.57C33.72,121.992 36.498,124.77 39.92,124.77L88.08,124.77C91.502,124.77 94.28,121.992 94.28,118.57L94.28,9.42Z" style="fill:rgb(24,24,24);"/>
    <rect x="35.309" y="9.57" width="57.383" height="107.014" style="fill:rgb(12,94,159);fill-rule:nonzero;"/>
    <g>
        <path d="M64,59.854C53.42,59.854 44.845,68.43 44.845,79.004C44.845,89.584 53.421,98.159 64,98.159C74.574,98.159 83.155,89.584 83.155,79.004C83.15,68.424 74.575,59.854 64,59.854ZM78.824,79.004C78.824,82.553 77.573,85.808 75.498,88.357L54.642,67.507C57.282,65.353 60.588,64.178 63.995,64.18C72.187,64.18 78.825,70.812 78.825,79.004L78.824,79.004ZM49.171,79.004C49.171,76.051 50.044,73.311 51.528,70.999L72,91.47C69.615,93.01 66.834,93.829 63.995,93.828C55.808,93.833 49.171,87.195 49.171,79.003L49.171,79.004Z" style="fill:white;fill-rule:nonzero;"/>
        <g transform="matrix(0.50475,0,0,0.50475,18.931,46.7)">
            <path id="e" d="M106.64,46.87C103.59,44.08 99.63,42.37 95.54,41.83C94.76,41.73 93.34,41.79 92.85,42.57C92.34,43.39 92.41,44.52 92.55,45.42C93.51,51.82 93.8,57.99 92.45,64.38C92.23,65.46 92.01,66.54 91.67,67.59C91.36,68.53 90.89,69.95 90,70.51C89.25,70.97 88.46,70.3 87.93,69.82C84.87,66.98 80.49,65.19 76.26,65.79C75.01,65.96 73.6,66.36 72.49,66.99C71.35,67.64 70,68.81 69.35,69.98C68.01,72.42 67.74,75.37 68.75,77.98C69.02,78.7 69.38,79.43 69.8,80.07C72.13,83.6 76.65,85.17 80.72,85.19C84.25,85.21 87.95,84.09 90.3,81.32C91.31,80.12 92.04,78.72 92.58,77.27C93.2,75.6 93.83,73.94 94.48,72.29C95.12,70.69 95.58,69.01 95.97,67.33C96.441,65.243 96.755,63.124 96.91,60.99C96.98,60.18 97,59.36 97.07,58.55C97.22,56.88 96.93,55.24 99.21,55.56C99.91,55.65 100.58,56.03 101.19,56.35C102.74,57.17 104.16,58.37 105.07,59.88C106.12,61.64 105.96,63.55 105.32,65.43C105.21,65.75 105.14,66.18 105.2,66.52C105.35,67.4 105.93,67.85 106.81,67.71C108.84,67.38 111.11,63.26 111.41,60.86C112.04,55.88 110.27,50.2 106.64,46.87Z" style="fill:white;fill-rule:nonzero;"/>
        </g>
    </g>
    <path d="M54.121,120.309L73.879,120.309M54.121,6.48L73.879,6.48" style="fill:none;stroke:rgb(40,40,40);stroke-width:1.48px;"/>
    <g transform="matrix(0.931817,0,0,0.931817,45.0395,36.036)">
        <text x="0px" y="0px" style="font-family:'ComicNeue-Bold', 'Comic Neue';font-weight:700;font-size:17.333px;fill:white;">04:20</text>
    </g>
    <g transform="matrix(0.931817,0,0,0.931817,45.0395,48.7395)">
        <text x="0px" y="0px" style="font-family:'ComicNeue-Bold', 'Comic Neue';font-weight:700;font-size:12px;fill:white;">17.07.</text>
    </g>
</svg>
